X:112
T:Camp Frolic,The. JJo.112
S:J.Jones MS,1801,N.Shrops.
A:N Shropshire
Z:Neil Brookes 2006
M:2/4
L:1/8
Q:1/4=100
K:C
ag|ee d/c/d/e/|cc c’g|ee d/c/d/e/|c2:|!
|:cc|dd c/B/A/G/|cc cc|dd c/B/A/G/|c2:|!
|:g a/4g/4f/4e/4|^ga f g/4f/4e/4d/4|\
^fg e =f/4e/4d/4c/4|Af e/d/4c/4 d/4c/4B/|c2:|

